flaticon/medical/lozenge.svg

<svg xmlns="http://www.w3.org/2000/svg" width="32" height="32" viewBox="0 0 24 24">
    <path d="M 23.988281 12.484375 C 23.996094 12.3125 24 12.152344 24 12 C 24 11.847656 23.996094 11.6875 23.988281 11.515625 C 23.980469 11.375 23.972656 11.230469 23.960938 11.089844 C 23.960938 11.082031 23.960938 11.078125 23.960938 11.074219 L 23.933594 10.726562 L 23.929688 10.726562 C 23.292969 4.707031 18.1875 0 12 0 C 5.792969 0 0.671875 4.734375 0.0625 10.785156 L 0.0585938 10.785156 L 0.0351562 11.128906 C 0.0351562 11.132812 0.0351562 11.136719 0.0351562 11.144531 C 0.0234375 11.269531 0.015625 11.398438 0.0117188 11.527344 C 0.00390625 11.691406 0 11.847656 0 12 C 0 12.152344 0.00390625 12.308594 0.0117188 12.472656 C 0.015625 12.601562 0.0234375 12.730469 0.0351562 12.855469 C 0.0351562 12.863281 0.0351562 12.867188 0.0351562 12.871094 L 0.0585938 13.214844 L 0.0625 13.214844 C 0.671875 19.265625 5.792969 24 12 24 C 18.1875 24 23.292969 19.292969 23.929688 13.273438 L 23.933594 13.273438 L 23.960938 12.925781 C 23.960938 12.921875 23.960938 12.917969 23.960938 12.910156 C 23.972656 12.769531 23.980469 12.625 23.988281 12.484375 Z M 23.1875 12.519531 C 20.167969 12.699219 16.355469 12.800781 12.398438 12.800781 C 8.039062 12.800781 3.945312 12.683594 0.8125 12.46875 C 0.804688 12.3125 0.800781 12.15625 0.800781 12 C 0.800781 11.84375 0.804688 11.6875 0.8125 11.53125 C 3.945312 11.316406 8.039062 11.199219 12.398438 11.199219 C 16.355469 11.199219 20.167969 11.300781 23.1875 11.480469 C 23.195312 11.664062 23.199219 11.835938 23.199219 12 C 23.199219 12.164062 23.195312 12.335938 23.1875 12.519531 Z M 12 0.800781 C 17.726562 0.800781 22.460938 5.121094 23.121094 10.675781 C 20.101562 10.5 16.324219 10.398438 12.398438 10.398438 C 8.078125 10.398438 4.011719 10.515625 0.875 10.726562 C 1.507812 5.148438 6.253906 0.800781 12 0.800781 Z M 12 23.199219 C 6.253906 23.199219 1.507812 18.851562 0.875 13.273438 C 4.011719 13.484375 8.078125 13.601562 12.398438 13.601562 C 16.324219 13.601562 20.101562 13.5 23.121094 13.324219 C 22.460938 18.878906 17.726562 23.199219 12 23.199219 Z M 12 23.199219"/>
    <path d="M12 2.800781C14.054688 2.800781 16 3.464844 17.621094 4.71875 17.695312 4.773438 17.78125 4.800781 17.867188 4.800781 17.988281 4.800781 18.105469 4.746094 18.183594 4.644531 18.320312 4.472656 18.285156 4.21875 18.113281 4.085938 16.347656 2.722656 14.234375 2 12 2 11.777344 2 11.601562 2.179688 11.601562 2.398438 11.601562 2.621094 11.777344 2.800781 12 2.800781zM8.398438 3.496094C8.449219 3.496094 8.5 3.488281 8.550781 3.46875 8.800781 3.367188 9.058594 3.277344 9.316406 3.195312 9.691406 3.082031 10.078125 2.992188 10.464844 2.925781 10.683594 2.890625 10.832031 2.683594 10.792969 2.46875 10.757812 2.25 10.550781 2.101562 10.335938 2.136719 9.914062 2.207031 9.492188 2.308594 9.082031 2.433594 8.804688 2.519531 8.523438 2.617188 8.25 2.726562 8.046875 2.808594 7.945312 3.042969 8.03125 3.246094 8.09375 3.402344 8.242188 3.496094 8.398438 3.496094zM18.503906 18.503906C17.050781 19.960938 15.207031 20.863281 13.175781 21.125 12.953125 21.152344 12.800781 21.355469 12.828125 21.574219 12.855469 21.773438 13.027344 21.921875 13.222656 21.921875 13.242188 21.921875 13.257812 21.921875 13.273438 21.917969 15.488281 21.636719 17.492188 20.652344 19.070312 19.070312 19.226562 18.914062 19.226562 18.664062 19.070312 18.507812 18.914062 18.347656 18.660156 18.347656 18.503906 18.503906zM20.996094 15.378906C20.792969 15.296875 20.558594 15.390625 20.472656 15.59375 20.367188 15.839844 20.25 16.085938 20.121094 16.328125 19.9375 16.671875 19.726562 17.011719 19.5 17.332031 19.371094 17.511719 19.414062 17.761719 19.59375 17.890625 19.664062 17.9375 19.746094 17.964844 19.824219 17.964844 19.949219 17.964844 20.074219 17.90625 20.152344 17.796875 20.398438 17.449219 20.625 17.082031 20.828125 16.703125 20.964844 16.445312 21.09375 16.175781 21.207031 15.90625 21.292969 15.703125 21.199219 15.46875 20.996094 15.378906zM20.996094 15.378906"/>
</svg>

<svg xmlns="http://www.w3.org/2000/svg" width="32" height="32" viewBox="0 0 24 24">
    <path d="M23.988 12.484a10.655 10.655 0 0 0 0-.968c-.008-.141-.015-.286-.027-.426v-.016l-.027-.347h-.004C23.293 4.707 18.188 0 12 0 5.793 0 .672 4.734.062 10.785H.06l-.024.344v.016c-.012.125-.02.253-.023.382a9.907 9.907 0 0 0 .023 1.328v.016l.024.344h.004C.671 19.265 5.793 24 12 24c6.188 0 11.293-4.707 11.93-10.727h.004l.027-.347v-.016c.012-.14.02-.285.027-.426zm-.8.036c-3.02.18-6.833.28-10.79.28-4.359 0-8.453-.116-11.585-.331a9.386 9.386 0 0 1 0-.938c3.132-.215 7.226-.332 11.585-.332 3.957 0 7.77.102 10.79.281a12.206 12.206 0 0 1 0 1.04zM12 .8c5.727 0 10.46 4.321 11.121 9.876-3.02-.176-6.797-.278-10.723-.278-4.32 0-8.386.118-11.523.329C1.508 5.148 6.254.8 12 .8zm0 22.4c-5.746 0-10.492-4.348-11.125-9.927 3.137.211 7.203.329 11.523.329 3.926 0 7.704-.102 10.723-.278C22.461 18.88 17.727 23.2 12 23.2zm0 0"/>
    <path d="M12 2.8c2.055 0 4 .665 5.621 1.919.074.054.16.082.246.082a.398.398 0 0 0 .317-.156.398.398 0 0 0-.07-.56A9.918 9.918 0 0 0 12 2a.398.398 0 0 0-.398.398c0 .223.175.403.398.403zm0 0M8.398 3.496c.051 0 .102-.008.153-.027.25-.102.508-.192.765-.274a9.61 9.61 0 0 1 1.149-.27.4.4 0 0 0-.129-.79c-.422.072-.844.174-1.254.299-.277.086-.559.183-.832.293a.397.397 0 0 0-.219.52c.063.155.211.25.367.25zm0 0M18.504 18.504a9.1 9.1 0 0 1-5.328 2.621.4.4 0 0 0 .047.797c.02 0 .035 0 .05-.004a9.872 9.872 0 0 0 5.797-2.848.396.396 0 0 0 0-.562.397.397 0 0 0-.566-.004zm0 0M20.996 15.379a.404.404 0 0 0-.523.215 9.514 9.514 0 0 1-.973 1.738.4.4 0 0 0 .652.465 9.91 9.91 0 0 0 1.055-1.89.405.405 0 0 0-.21-.528zm0 0"/>
</svg>
